X:1
T:Bentley, 76.76 D
T:John Pyke Hullah, 1867
T:Bentley, 76.76 D
T:Public Domain
C:John Pyke Hullah, 1867
Z:Public Domain
%%score ( 1 2 ) ( 3 4 )
L:1/8
M:4/4
K:Db
V:1 treble 
V:2 treble 
V:3 bass 
V:4 bass 
V:1
 [DF]2 | [DE]2 [DF]2 [DG]2 [GB]2 | [GB]4 [FA]2 [Fd]2 | [Fc]2 [FA]2 G2 [EB]2 | A6 [DF]2 | %5
 [CF]2 [CE]2 D2 [DA]2 | [DA]4 [DG]2 [DF]2 | [DF]2 [DG]2 D2 [B,E]2 | [CF]6 [DF]2 | %9
 [DE]2 [DF]2 [DG]2 [GB]2 | [GB]4 [FA]2 [Fd]2 | [Fc]2 A2 [AB]2 [=Gc]2 | A6 [GA]2 | %13
 [Ff]2 [Fd]2 [Gc]2 [GA]2 | [Fd]4 D2 [CA]2 | [B,A]2 [B,G]2 [CF]2 [CE]2 | D6 |] %17
V:2
 x2 | x8 | x8 | x4 G2 x2 | A6 x2 | x4 D2 x2 | x8 | x8 | x8 | x8 | x8 | x2 A2 x4 | A6 x2 | x8 | %14
 x4 D2 x2 | x8 | D6 |] %17
V:3
 [D,A,]2 | [D,G,]2 [D,A,]2 [D,B,]2 [D,C]2 | [D,D]4 [D,D]2 B,2 | [A,C]2 [F,D]2 [E,D]2 [G,C]2 | %4
 [F,D]6 [F,A,]2 | [G,A,]2 [G,A,]2 [F,A,]2 [F,A,]2 | [E,B,]4 [E,B,]2 [D,_C]2 | %7
 [G,B,]2 [G,B,]2 [G,B,]2 [G,B,]2 | [F,=A,]6 [D,_A,]2 | [D,G,]2 [D,A,]2 [D,B,]2 [D,C]2 | %10
 [D,D]4 [D,D]2 B,2 | [A,C]2 [F,C]2 [E,D]2 [E,D]2 | [A,C]6 [A,C]2 | [D,D]2 [D,A,]2 [E,A,]2 [E,A,]2 | %14
 [B,,B,]4 [B,,F,]2 [F,,D,]2 | [G,,E,]2 [G,,E,]2 [A,,G,]2 [A,,G,]2 | [D,F,]6 |] %17
V:4
 x2 | x8 | x6 B,2 | x8 | x8 | x8 | x8 | x8 | x8 | x8 | x8 | x8 | x8 | x8 | x8 | x8 | x6 |] %17

